X:1
T:Title
%%score { 1 | ( 2 3 ) }
L:1/8
M:6/4
K:Eb
V:1 treble nm="Grand Piano"
V:2 bass 
V:3 bass 
V:1
 z6 z4[Q:1/4=117] [EG][FA] | [GB]2 [Ac]3 [GB] [EG]4 [DF]2 | E2 G4- G4 G[FA] | %3
 [GB]2 [Ac]2 [GB]2 G2 F2 [G,E]2 |[M:5/4] [A,DF]2- [A,DF]2- [A,DF]6 |[M:1/4] [A,DF][G,EG] | %6
[M:6/4] [FA]2 [=EG]2 [FA]2 [Ac]2 [GB]2 [B,FA]2 | [B,EG]2 [EGB]4- [EGB]4 [B,GB][_Gc] | %8
 [Fd]2 [Ge]2 [Fd]2 .[C=Ec]4 [C_E=A]2 |[M:5/4] [B,DB]2- [B,DB]2- [B,DB]6 |[M:1/4] [DAB]2 | %11
[M:6/4] [GB]2 [Ac]3 [GB] [EG][GB]- [GB]3 [GB] | [GB] [Ac]3 G2 A4 A2 | %13
 [DA]2 [DB]3 [DA] [DF][DA]- [DA]3 [Ac] | [Ac]2 [Bd]3 [B,Ac] [B,GB]4 [B,GB][B,GB] | %15
 [GB]2 [Ac]3 [GB] G4 GG | G2 A2 B2 c4 cc |[M:13/8] c2 e3 c2 [EGB] [EG]3 [G,E][=A,EF] | %18
[M:5/4] [B,EG]2 [A,DF]4 [G,E]4 |] %19
V:2
 z6 z4 [E,B,][E,B,] | [E,E]2 [E,E]3 [E,E] [E,B,]4 [B,,A,]2 | %2
 [E,G,]2 [E,B,E]4- [E,B,E]4 [E,B,E][E,B,] | z6 .B,6 |[M:5/4] B,,2- B,,2- B,,6 |[M:1/4] B,,B,, | %6
[M:6/4] z6 .B,6 | E,2 E,4- E,4 E,[E,B,] | [F,B,]2 [F,=A,]2 [F,B,]2 z2 G2 F,2 | %9
[M:5/4] B,,2- B,,2- B,,6 |[M:1/4] B,2 |[M:6/4] [E,E]2 [E,E]3 [E,E] [E,B,][E,E]- [E,E]3 [E,E] | %12
 [E,E] [E,E]3 [E,B,E]2 [F,B,D]4 [F,B,D]2 | %13
 [B,,F,]2 [B,,G,]3 [B,,F,] [B,,A,][B,,F,]- [B,,F,]3 [B,,B,] | [B,,B,]2 [B,,B,]3 C,/D,/ E,4 E,E, | %15
 [E,E]2 [E,E]3 [E,E] [E,B,E]4 [E,B,E][E,B,E] | %16
 B,2- [F,B,D]2[K:treble] [G,B,E]2 [A,EA]4 [A,EA][A,EA] | %17
[M:13/8] [A,EA]2 [A,CA]3 .[A,EA]3[K:bass] B,3 C,=B,, |[M:5/4] B,,2 B,,4 E,4 |] %19
V:3
 x12 | x12 | x12 | [E,E]2 [E,E]2 [E,E]2 [E,E]2- [E,A,E]2 E,2 |[M:5/4] x10 |[M:1/4] x2 | %6
[M:6/4] [B,,F,]2 [B,,G,]2 [B,,F,]2 B,,2 C,2 D,2 | x12 | z6 .C,6 |[M:5/4] x10 |[M:1/4] x2 | %11
[M:6/4] x12 | x12 | x12 | x12 | x12 | .[E,E]6[K:treble] z6 | %17
[M:13/8] z z z z z z2[K:bass] E,- E,3 z2 |[M:5/4] x10 |] %19

